logo.svg

<?xml version="1.0" encoding="UTF-8" standalone="no"?>
<svg
   xmlns:dc="http://purl.org/dc/elements/1.1/"
   xmlns:cc="http://creativecommons.org/ns#"
   xmlns:rdf="http://www.w3.org/1999/02/22-rdf-syntax-ns#"
   xmlns:svg="http://www.w3.org/2000/svg"
   xmlns="http://www.w3.org/2000/svg"
   xmlns:sodipodi="http://sodipodi.sourceforge.net/DTD/sodipodi-0.dtd"
   xmlns:inkscape="http://www.inkscape.org/namespaces/inkscape"
   inkscape:version="1.0 (4035a4fb49, 2020-05-01)"
   inkscape:export-ydpi="146.16"
   inkscape:export-xdpi="146.16"
   inkscape:export-filename="/home/alex/dev/spotify-hotkeys-chrome-extension/logo.png"
   sodipodi:docname="logo.svg"
   id="svg943"
   viewBox="0 0 168 168"
   version="1.1"
   width="168px"
   height="168px">
  <metadata
     id="metadata949">
    <rdf:RDF>
      <cc:Work
         rdf:about="">
        <dc:format>image/svg+xml</dc:format>
        <dc:type
           rdf:resource="http://purl.org/dc/dcmitype/StillImage" />
      </cc:Work>
    </rdf:RDF>
  </metadata>
  <defs
     id="defs947" />
  <sodipodi:namedview
     inkscape:current-layer="svg943"
     inkscape:window-maximized="0"
     inkscape:window-y="18"
     inkscape:window-x="1844"
     inkscape:cy="74.531668"
     inkscape:cx="78.593967"
     inkscape:zoom="2.4702381"
     showgrid="false"
     id="namedview945"
     inkscape:window-height="1400"
     inkscape:window-width="1994"
     inkscape:pageshadow="2"
     inkscape:pageopacity="0"
     guidetolerance="10"
     gridtolerance="10"
     objecttolerance="10"
     borderopacity="1"
     bordercolor="#666666"
     pagecolor="#ffffff" />
  <g
     transform="translate(4.8877676,1.562252)"
     id="g1536" />
  <path
     d="m 68.5,42.597656 c -12.623825,0.269103 -25.308041,1.713287 -37.435547,5.337891 -4.09555,1.192205 -7.06906,5.30823 -6.926657,9.569118 0.0113,4.102472 2.887293,7.977229 6.808449,9.181443 2.24858,0.768066 4.705893,0.53608 6.9138,-0.254116 6.301438,-1.806482 12.869272,-2.877818 19.329408,-3.519883 1.112944,-0.101599 2.473044,-0.223276 3.616126,-0.301489 5.080897,-0.368593 10.238082,-0.457969 15.274499,-0.32937 3.816352,0.106978 7.797574,0.3592 11.460938,0.724609 2.934466,0.298725 5.832045,0.664414 8.690989,1.123894 3.706588,0.586695 7.423455,1.326842 11.002355,2.208807 8.94108,2.201714 17.77206,5.388482 25.75783,10.169252 3.4936,1.848775 8.0768,1.313633 11.02053,-1.341973 3.14132,-2.679049 4.23727,-7.420551 2.58298,-11.204901 -0.94219,-2.342667 -2.87941,-4.145274 -5.1117,-5.257839 C 129.60562,51.913024 116.35905,47.821436 102.9529,45.352054 91.600984,43.279778 80.034814,42.402859 68.5,42.597656 Z M 38.564453,81.107422 c 0,19.095048 0,38.190108 0,57.285158 15.539429,-8.96699 31.076668,-17.93777 46.615235,-26.90625 -10e-7,8.48112 0,16.96224 0,25.44336 6.242187,0 12.484375,0 18.726562,0 0,-19.27409 0,-38.54818 0,-57.822268 -6.242188,0 -12.484375,0 -18.726562,0 -10e-7,8.483073 0,16.966146 0,25.449218 C 69.641321,95.585209 54.102573,86.614438 38.564453,77.642578 c 0,1.154948 0,2.309896 0,3.464844 z m 72.136717,0 c 0,18.607422 0,37.214848 0,55.822268 6.24219,0 12.48438,0 18.72656,0 0,-19.27409 0,-38.54818 0,-57.822268 -6.24218,0 -12.48437,0 -18.72656,0 0,0.666667 0,1.333333 0,2 z"
     style="fill:#ffffff;fill-opacity:1;stroke:none"
     id="path2219" />
  <path
     style="stroke:none;fill:#1ed760;fill-opacity:1"
     d="M 83.996094 0.27734375 C 37.747094 0.27734375 0.25390625 37.770531 0.25390625 84.019531 C 0.25390625 130.27053 37.747094 167.75977 83.996094 167.75977 C 130.25009 167.75977 167.74023 130.27053 167.74023 84.019531 C 167.74023 37.773531 130.24914 0.28125 83.994141 0.28125 L 83.996094 0.27734375 z M 71.251953 44.568359 C 95.611729 44.505596 122.10219 49.505781 141.52344 61.035156 C 145.25344 63.244156 146.47367 68.052531 144.26367 71.769531 C 142.06367 75.491531 137.2432 76.717812 133.5332 74.507812 L 133.5293 74.507812 C 106.5393 58.476813 62.009234 57.003219 36.240234 64.824219 C 32.102234 66.079219 27.726656 63.743469 26.472656 59.605469 C 25.218656 55.465469 27.552359 51.091984 31.693359 49.833984 C 42.786234 46.466484 56.636088 44.606018 71.251953 44.568359 z M 40.564453 81.107422 L 87.179688 108.02148 L 87.179688 81.107422 L 101.90625 81.107422 L 101.90625 134.92969 L 87.179688 134.92969 L 87.179688 108.02148 L 40.564453 134.92969 L 40.564453 81.107422 z M 112.70117 81.107422 L 127.42773 81.107422 L 127.42773 134.92969 L 112.70117 134.92969 L 112.70117 81.107422 z "
     id="path941" />
</svg>

<svg xmlns="http://www.w3.org/2000/svg" width="168" height="168">
  <path d="M68.5 42.598c-12.624.269-25.308 1.713-37.436 5.338-4.095 1.192-7.069 5.308-6.926 9.569.011 4.102 2.887 7.977 6.808 9.181 2.249.768 4.706.536 6.914-.254 6.301-1.806 12.87-2.878 19.33-3.52 1.112-.101 2.472-.223 3.616-.301 5.08-.369 10.238-.458 15.274-.33 3.816.107 7.798.36 11.461.725a151.4 151.4 0 0 1 8.691 1.124c3.707.586 7.423 1.327 11.002 2.209 8.941 2.201 17.772 5.388 25.758 10.169 3.494 1.849 8.077 1.313 11.02-1.342 3.142-2.68 4.238-7.42 2.584-11.205-.942-2.343-2.88-4.145-5.112-5.258-11.878-6.79-25.125-10.882-38.531-13.35C91.6 43.28 80.035 42.402 68.5 42.597Zm-29.936 38.51v57.285c15.54-8.967 31.077-17.938 46.616-26.907v25.444h18.726V79.107H85.18v25.45L38.564 77.643v3.464zm72.137 0v55.822h18.727V79.107H110.7v2z" style="fill:#fff;fill-opacity:1;stroke:none"/>
  <path d="M83.996.277C37.747.277.254 37.771.254 84.02c0 46.25 37.493 83.74 83.742 83.74 46.254 0 83.744-37.49 83.744-83.74C167.74 37.774 130.25.28 83.994.28l.002-.004zM71.252 44.568c24.36-.062 50.85 4.938 70.271 16.467a7.825 7.825 0 0 1 2.74 10.735c-2.2 3.722-7.02 4.948-10.73 2.738h-.004c-26.99-16.031-71.52-17.505-97.289-9.684-4.138 1.255-8.513-1.08-9.767-5.219a7.836 7.836 0 0 1 5.22-9.771c11.093-3.368 24.943-5.228 39.559-5.266zm-30.688 36.54L87.18 108.02V81.107h14.726v53.823H87.18V108.02L40.564 134.93V81.107zm72.137 0h14.727v53.822H112.7V81.107z" style="stroke:none;fill:#1ed760;fill-opacity:1"/>
</svg>
